assets/images/nutrikator.svg

<svg fill="none" height="644" viewBox="0 0 497 644" width="497" xmlns="http://www.w3.org/2000/svg" xmlns:xlink="http://www.w3.org/1999/xlink"><linearGradient id="a" gradientUnits="userSpaceOnUse" x1="248.5" x2="248.5" y1="0" y2="644"><stop offset="0" stop-color="#292524"/><stop offset="1" stop-color="#4a4240"/></linearGradient><clipPath id="b"><path d="m0 0h497v644h-497z"/></clipPath><mask id="c" height="644" maskUnits="userSpaceOnUse" width="497" x="0" y="0"><path d="m461 0h-425c-19.8823 0-36 16.1177-36 36v572c0 19.882 16.1177 36 36 36h425c19.882 0 36-16.118 36-36v-572c0-19.8823-16.118-36-36-36z" fill="#d9d9d9"/></mask><g clip-path="url(#b)"><g mask="url(#c)"><path d="m497 0h-497v644h497z" fill="url(#a)"/><g stroke="#fff" stroke-width="3"><path d="m49.4062 160.156c0-48.758 50.7858-80.8964 94.8498-60.024l272.132 128.905c23.196 10.987 37.985 34.357 37.985 60.024 0 48.758-50.786 80.896-94.85 60.024l-272.1317-128.905c-23.1961-10.988-37.9851-34.357-37.9851-60.024z"/><path d="m37.5 343.831c0-48.758 50.7854-80.897 94.85-60.024l272.131 128.904c23.196 10.988 37.985 34.358 37.985 60.024 0 48.758-50.785 80.897-94.849 60.024l-272.132-128.904c-23.1961-10.988-37.985-34.357-37.985-60.024z"/><path d="m331.633 119.466c0-35.3274 28.638-63.966 63.966-63.966 35.327 0 63.966 28.6386 63.966 63.966 0 35.327-28.639 63.966-63.966 63.966-35.328 0-63.966-28.639-63.966-63.966z"/></g><path d="m67.0625 159.449c0-26.636 21.5926-48.229 48.2285-48.229 26.636 0 48.228 21.593 48.228 48.229 0 26.635-21.592 48.228-48.228 48.228-26.6359 0-48.2285-21.593-48.2285-48.228z" fill="#ff8e4f"/><path d="m327.008 471.707c0-26.635 21.592-48.228 48.228-48.228s48.229 21.593 48.229 48.228c0 26.636-21.593 48.229-48.229 48.229s-48.228-21.593-48.228-48.229z" fill="#ffe177"/><path d="m348.262 118.577c0-26.6358 21.592-48.2284 48.228-48.2284s48.229 21.5926 48.229 48.2284c0 26.636-21.593 48.228-48.229 48.228s-48.228-21.592-48.228-48.228z" fill="#72c456"/><path d="m62.1562 524.023c0-26.635 21.5928-48.228 48.2288-48.228s48.228 21.593 48.228 48.228c0 26.636-21.592 48.229-48.228 48.229s-48.2288-21.593-48.2288-48.229z" fill="#ff685f"/><path d="m45.9648 524.164c0-35.327 28.6386-63.966 63.9662-63.966 35.327 0 63.966 28.639 63.966 63.966 0 35.328-28.639 63.966-63.966 63.966-35.3276 0-63.9662-28.638-63.9662-63.966z" stroke="#fff" stroke-width="3"/></g></g></svg>

<svg width="497" height="644" viewBox="0 0 497 644" fill="none" xmlns="http://www.w3.org/2000/svg">
<g clip-path="url(#clip0_21_2)">
<mask id="mask0_21_2" style="mask-type:alpha" maskUnits="userSpaceOnUse" x="0" y="0" width="497" height="644">
<path d="M461 0H36C16.1177 0 0 16.1177 0 36V608C0 627.882 16.1177 644 36 644H461C480.882 644 497 627.882 497 608V36C497 16.1177 480.882 0 461 0Z" fill="#D9D9D9"/>
</mask>
<g mask="url(#mask0_21_2)">
<path d="M497 0H0V644H497V0Z" fill="url(#paint0_linear_21_2)"/>
<path d="M49.4062 160.156C49.4062 111.398 100.192 79.2596 144.256 100.132L416.388 229.037C439.584 240.024 454.373 263.394 454.373 289.061C454.373 337.819 403.587 369.957 359.523 349.085L87.3913 220.18C64.1952 209.192 49.4062 185.823 49.4062 160.156Z" stroke="white" stroke-width="3"/>
<path d="M37.5 343.831C37.5 295.073 88.2854 262.934 132.35 283.807L404.481 412.711C427.677 423.699 442.466 447.069 442.466 472.735C442.466 521.493 391.681 553.632 347.617 532.759L75.485 403.855C52.2889 392.867 37.5 369.498 37.5 343.831Z" stroke="white" stroke-width="3"/>
<path d="M331.633 119.466C331.633 84.1386 360.271 55.5 395.599 55.5C430.926 55.5 459.565 84.1386 459.565 119.466C459.565 154.793 430.926 183.432 395.599 183.432C360.271 183.432 331.633 154.793 331.633 119.466Z" stroke="white" stroke-width="3"/>
<path d="M67.0625 159.449C67.0625 132.813 88.6551 111.22 115.291 111.22C141.927 111.22 163.519 132.813 163.519 159.449C163.519 186.084 141.927 207.677 115.291 207.677C88.6551 207.677 67.0625 186.084 67.0625 159.449Z" fill="#FF8E4F"/>
<path d="M327.008 471.707C327.008 445.072 348.6 423.479 375.236 423.479C401.872 423.479 423.465 445.072 423.465 471.707C423.465 498.343 401.872 519.936 375.236 519.936C348.6 519.936 327.008 498.343 327.008 471.707Z" fill="#FFE177"/>
<path d="M348.262 118.577C348.262 91.9412 369.854 70.3486 396.49 70.3486C423.126 70.3486 444.719 91.9412 444.719 118.577C444.719 145.213 423.126 166.805 396.49 166.805C369.854 166.805 348.262 145.213 348.262 118.577Z" fill="#72C456"/>
<path d="M62.1562 524.023C62.1562 497.388 83.749 475.795 110.385 475.795C137.021 475.795 158.613 497.388 158.613 524.023C158.613 550.659 137.021 572.252 110.385 572.252C83.749 572.252 62.1562 550.659 62.1562 524.023Z" fill="#FF685F"/>
<path d="M45.9648 524.164C45.9648 488.837 74.6034 460.198 109.931 460.198C145.258 460.198 173.897 488.837 173.897 524.164C173.897 559.492 145.258 588.13 109.931 588.13C74.6034 588.13 45.9648 559.492 45.9648 524.164Z" stroke="white" stroke-width="3"/>
</g>
</g>
<defs>
<linearGradient id="paint0_linear_21_2" x1="248.5" y1="0" x2="248.5" y2="644" gradientUnits="userSpaceOnUse">
<stop stop-color="#292524"/>
<stop offset="1" stop-color="#4A4240"/>
</linearGradient>
<clipPath id="clip0_21_2">
<rect width="497" height="644" fill="white"/>
</clipPath>
</defs>
</svg>
